X:1
T:Coral's Caper
C:Megan Wobus
S:Megan Wobus composed 9/24/2002
M:6/8
R:jig
K:A
|: FAF E2A | Bcd cBA | FAF EAc | def e2 e |
age fec | def ecA | dcB cBA | FAF E2 E :|
|: B3 Bcd | c3 cde | d3 def | eaf ecA |
 B3 Bcd | c3 cde |dcB cBA | FAF E3 :|
W:Copyright 2002 Megan Wobus, PGTPPCATPL AORR
